X:1068
T:Chattanooga
T:Old Chattanooga
R:reel
O:American
Z:id:hn-reel-1068
M:C|
L:1/8
K:G
GE | D2ED GDAD | AB2A B3A | B2eB dBAG | E3D E2GE |
D2ED GDAD | AB2A B3A | B2eB dBA2 | G6 :|
|: de | gfga ged2 | e2d2 B3A | B2eB dBAG | E3D E2de |
[1 g3a g3d | e2d2 B3A | B2eB dBA2 | G6 :|
[2 gaba g3d | e2d2 B3A | B2eB dBA2 | G6 ||

